X:231
T: Shoo Fly
M:C|
K:D
"D"d4 dBAB | d2 d4 AB | d2d2  BAFD | "A" E2>F2 E2A2 | c4 cBAB|
"A"c2>B2 c2B2 |1A2A2B2A2 | "D"F4 F2 AB:|2"A"A2A2 BAcA| "D"d2>c2 d4||
"D"f2e2d2 ef | "G"g2f2e2e2-|"A"e2d2c2e2 | "D"fgfe d2e2|
"D"f2e2d2 ef|"G"g2f2e2a2-|"A"a2 a2 gf e2 |1"D"d4 d2 e2 :|2"D"d4d4|]
